src/assets/svg/icons/fa/nuevos/classic/regular/octagon-check classic regular.svg

<svg xmlns="http://www.w3.org/2000/svg" viewBox="0 0 512 512"><path d="M191.5 48.07C185.2 48.07 179 50.6 174.5 55.1L55.1 174.5C50.6 179 48.07 185.2 48.07 191.5V320.5C48.07 326.8 50.6 332.1 55.1 337.5L21.15 371.4C7.652 357.9 .0666 339.6 .0666 320.5V191.5C.0666 172.4 7.652 154.1 21.15 140.6L140.6 21.15C154.1 7.652 172.4 .0664 191.5 .0664H320.5C339.6 .0664 357.9 7.652 371.4 21.15L490.8 140.6C504.3 154.1 511.9 172.4 511.9 191.5V320.5C511.9 339.6 504.3 357.9 490.8 371.4L371.4 490.8C357.9 504.3 339.6 511.9 320.5 511.9H191.5C172.4 511.9 154.1 504.3 140.6 490.8L21.15 371.4L55.1 337.5L174.5 456.9C179 461.4 185.2 463.9 191.5 463.9H320.5C326.8 463.9 332.1 461.4 337.5 456.9L456.9 337.5C461.4 332.1 463.9 326.8 463.9 320.5V191.5C463.9 185.2 461.4 179 456.9 174.5L337.5 55.1C332.1 50.6 326.8 48.07 320.5 48.07H191.5zM240.1 336.1C231.6 346.3 216.4 346.3 207 336.1L143 272.1C133.7 263.6 133.7 248.4 143 239C152.4 229.7 167.6 229.7 176.1 239L224 286.1L335 175C344.4 165.7 359.6 165.7 368.1 175C378.3 184.4 378.3 199.6 368.1 208.1L240.1 336.1z"/></svg>

<svg xmlns="http://www.w3.org/2000/svg" viewBox="0 0 512 512"><!--! Font Awesome Pro 6.4.0 by @fontawesome - https://fontawesome.com License - https://fontawesome.com/license (Commercial License) Copyright 2023 Fonticons, Inc. --><path d="M191.5 48.1c-6.4 0-12.5 2.5-17 7L55.1 174.5c-4.5 4.5-7 10.6-7 17v129c0 6.4 2.5 12.5 7 17L21.2 371.4C7.7 357.9 .1 339.6 .1 320.5v-129c0-19.1 7.6-37.4 21.1-50.9L140.6 21.2C154.1 7.7 172.4 .1 191.5 .1h129c19.1 0 37.4 7.6 50.9 21.1L490.8 140.6c13.5 13.5 21.1 31.8 21.1 50.9v129c0 19.1-7.6 37.4-21.1 50.9L371.4 490.8c-13.5 13.5-31.8 21.1-50.9 21.1h-129c-19.1 0-37.4-7.6-50.9-21.1L21.2 371.4l33.9-33.9L174.5 456.9c4.5 4.5 10.6 7 17 7h129c6.4 0 12.5-2.5 17-7L456.9 337.5c4.5-4.5 7-10.6 7-17v-129c0-6.4-2.5-12.5-7-17L337.5 55.1c-4.5-4.5-10.6-7-17-7h-129zM369 209L241 337c-9.4 9.4-24.6 9.4-33.9 0l-64-64c-9.4-9.4-9.4-24.6 0-33.9s24.6-9.4 33.9 0l47 47L335 175c9.4-9.4 24.6-9.4 33.9 0s9.4 24.6 0 33.9z"/></svg>
